(Exported by FreeCAD)
(Post Processor: PathScripts.linuxcnc_post)
(Output Time:2016-01-23 00:58:18.396645)
(begin preamble)
G17 G90
G20
(begin operation: Project)
(compound: Project)
(Path: Machine_)
G0 X0.0000 Y0.0000 Z0.0000
(Path: Custom)
G21
G0 F300 X0.0000 Y0.0000 Z20.0000
(Path: Array)
G90
G21
G40
G1 X0.0000 Y1.0000 Z14.4000
G1 X47.7000 Y1.0000 Z14.4000
G2 X48.7000 Y0.0000 Z14.4000 I0.0000 J-1.0000
G1 X48.7000 Y-23.7000 Z14.4000
G2 X47.7000 Y-24.7000 Z14.4000 I-1.0000 J0.0000
G1 X0.0000 Y-24.7000 Z14.4000
G2 X-1.0000 Y-23.7000 Z14.4000 I0.0000 J1.0000
G1 X-1.0000 Y0.0000 Z14.4000
G2 X0.0000 Y1.0000 Z14.4000 I1.0000 J-0.0000
G90
G21
G40
G1 X0.0000 Y1.0000 Z12.4000
G1 X47.7000 Y1.0000 Z12.4000
G2 X48.7000 Y0.0000 Z12.4000 I0.0000 J-1.0000
G1 X48.7000 Y-23.7000 Z12.4000
G2 X47.7000 Y-24.7000 Z12.4000 I-1.0000 J0.0000
G1 X0.0000 Y-24.7000 Z12.4000
G2 X-1.0000 Y-23.7000 Z12.4000 I0.0000 J1.0000
G1 X-1.0000 Y0.0000 Z12.4000
G2 X0.0000 Y1.0000 Z12.4000 I1.0000 J-0.0000
G90
G21
G40
G1 X0.0000 Y1.0000 Z10.4000
G1 X47.7000 Y1.0000 Z10.4000
G2 X48.7000 Y0.0000 Z10.4000 I0.0000 J-1.0000
G1 X48.7000 Y-23.7000 Z10.4000
G2 X47.7000 Y-24.7000 Z10.4000 I-1.0000 J0.0000
G1 X0.0000 Y-24.7000 Z10.4000
G2 X-1.0000 Y-23.7000 Z10.4000 I0.0000 J1.0000
G1 X-1.0000 Y0.0000 Z10.4000
G2 X0.0000 Y1.0000 Z10.4000 I1.0000 J-0.0000
G90
G21
G40
G1 X0.0000 Y1.0000 Z8.4000
G1 X47.7000 Y1.0000 Z8.4000
G2 X48.7000 Y0.0000 Z8.4000 I0.0000 J-1.0000
G1 X48.7000 Y-23.7000 Z8.4000
G2 X47.7000 Y-24.7000 Z8.4000 I-1.0000 J0.0000
G1 X0.0000 Y-24.7000 Z8.4000
G2 X-1.0000 Y-23.7000 Z8.4000 I0.0000 J1.0000
G1 X-1.0000 Y0.0000 Z8.4000
G2 X0.0000 Y1.0000 Z8.4000 I1.0000 J-0.0000
G90
G21
G40
G1 X0.0000 Y1.0000 Z6.4000
G1 X47.7000 Y1.0000 Z6.4000
G2 X48.7000 Y0.0000 Z6.4000 I0.0000 J-1.0000
G1 X48.7000 Y-23.7000 Z6.4000
G2 X47.7000 Y-24.7000 Z6.4000 I-1.0000 J0.0000
G1 X0.0000 Y-24.7000 Z6.4000
G2 X-1.0000 Y-23.7000 Z6.4000 I0.0000 J1.0000
G1 X-1.0000 Y0.0000 Z6.4000
G2 X0.0000 Y1.0000 Z6.4000 I1.0000 J-0.0000
G90
G21
G40
G1 X0.0000 Y1.0000 Z4.4000
G1 X47.7000 Y1.0000 Z4.4000
G2 X48.7000 Y0.0000 Z4.4000 I0.0000 J-1.0000
G1 X48.7000 Y-23.7000 Z4.4000
G2 X47.7000 Y-24.7000 Z4.4000 I-1.0000 J0.0000
G1 X0.0000 Y-24.7000 Z4.4000
G2 X-1.0000 Y-23.7000 Z4.4000 I0.0000 J1.0000
G1 X-1.0000 Y0.0000 Z4.4000
G2 X0.0000 Y1.0000 Z4.4000 I1.0000 J-0.0000
G90
G21
G40
G1 X0.0000 Y1.0000 Z2.4000
G1 X47.7000 Y1.0000 Z2.4000
G2 X48.7000 Y0.0000 Z2.4000 I0.0000 J-1.0000
G1 X48.7000 Y-23.7000 Z2.4000
G2 X47.7000 Y-24.7000 Z2.4000 I-1.0000 J0.0000
G1 X0.0000 Y-24.7000 Z2.4000
G2 X-1.0000 Y-23.7000 Z2.4000 I0.0000 J1.0000
G1 X-1.0000 Y0.0000 Z2.4000
G2 X0.0000 Y1.0000 Z2.4000 I1.0000 J-0.0000
G90
G21
G40
G1 X0.0000 Y1.0000 Z0.4000
G1 X47.7000 Y1.0000 Z0.4000
G2 X48.7000 Y0.0000 Z0.4000 I0.0000 J-1.0000
G1 X48.7000 Y-23.7000 Z0.4000
G2 X47.7000 Y-24.7000 Z0.4000 I-1.0000 J0.0000
G1 X0.0000 Y-24.7000 Z0.4000
G2 X-1.0000 Y-23.7000 Z0.4000 I0.0000 J1.0000
G1 X-1.0000 Y0.0000 Z0.4000
G2 X0.0000 Y1.0000 Z0.4000 I1.0000 J-0.0000
G90
G21
G40
G1 X0.0000 Y1.0000 Z-1.6000
G1 X47.7000 Y1.0000 Z-1.6000
G2 X48.7000 Y0.0000 Z-1.6000 I0.0000 J-1.0000
G1 X48.7000 Y-23.7000 Z-1.6000
G2 X47.7000 Y-24.7000 Z-1.6000 I-1.0000 J0.0000
G1 X0.0000 Y-24.7000 Z-1.6000
G2 X-1.0000 Y-23.7000 Z-1.6000 I0.0000 J1.0000
G1 X-1.0000 Y0.0000 Z-1.6000
G2 X0.0000 Y1.0000 Z-1.6000 I1.0000 J-0.0000
(Path: Array001)
G90
G21
G40
G0 X1.0000 Y-1.0000 Z14.4000
G1 X46.7000 Y-1.0000 Z14.4000
G1 X46.7000 Y-22.7000 Z14.4000
G1 X1.0000 Y-22.7000 Z14.4000
G1 X1.0000 Y-1.0000 Z14.4000
G0 X1.0000 Y-1.0000 Z20.0000
G0 X34.6000 Y-6.0000 Z20.0000
G1 X34.6000 Y-6.0000 Z14.4000
G3 X34.6000 Y-6.0000 Z14.4000 I-4.6000 J0.0000
G0 X34.6000 Y-6.0000 Z20.0000
G0 X34.6000 Y-17.7000 Z20.0000
G1 X34.6000 Y-17.7000 Z14.4000
G3 X34.6000 Y-17.7000 Z14.4000 I-4.6000 J0.0000
G0 X34.6000 Y-17.7000 Z20.0000
G0 X22.6000 Y-17.7000 Z20.0000
G1 X22.6000 Y-17.7000 Z14.4000
G3 X22.6000 Y-17.7000 Z14.4000 I-4.6000 J0.0000
G0 X22.6000 Y-17.7000 Z20.0000
G0 X22.6000 Y-6.0000 Z20.0000
G1 X22.6000 Y-6.0000 Z14.4000
G3 X22.6000 Y-6.0000 Z14.4000 I-4.6000 J0.0000
G0 X22.6000 Y-6.0000 Z20.0000
G0 X10.6000 Y-6.0000 Z20.0000
G1 X10.6000 Y-6.0000 Z14.4000
G3 X10.6000 Y-6.0000 Z14.4000 I-4.6000 J0.0000
G0 X10.6000 Y-6.0000 Z20.0000
G0 X10.6000 Y-17.7000 Z20.0000
G1 X10.6000 Y-17.7000 Z14.4000
G3 X10.6000 Y-17.7000 Z14.4000 I-4.6000 J0.0000
G0 X10.6000 Y-17.7000 Z20.0000
G0 X46.6000 Y-6.0000 Z20.0000
G1 X46.6000 Y-6.0000 Z14.4000
G3 X46.6000 Y-6.0000 Z14.4000 I-4.6000 J0.0000
G0 X46.6000 Y-6.0000 Z20.0000
G0 X46.6000 Y-17.7000 Z20.0000
G1 X46.6000 Y-17.7000 Z14.4000
G3 X46.6000 Y-17.7000 Z14.4000 I-4.6000 J0.0000
G0 X46.6000 Y-17.7000 Z20.0000
G0 X2.0000 Y-2.0000 Z20.0000
G1 X2.0000 Y-2.0000 Z14.4000
G1 X2.0808 Y-2.0000 Z14.4000
G3 X2.0000 Y-2.0808 Z14.4000 I3.9192 J-4.0000
G1 X2.0000 Y-2.0000 Z14.4000
G0 X2.0000 Y-2.0000 Z20.0000
G0 X9.9192 Y-2.0000 Z20.0000
G1 X9.9192 Y-2.0000 Z14.4000
G1 X14.0808 Y-2.0000 Z14.4000
G3 X23.6000 Y-6.0000 Z14.4000 I3.9192 J-4.0000
G3 X21.9192 Y-2.0000 Z14.4000 I-5.6000 J0.0000
G1 X26.0808 Y-2.0000 Z14.4000
G3 X35.6000 Y-6.0000 Z14.4000 I3.9192 J-4.0000
G3 X33.9192 Y-2.0000 Z14.4000 I-5.6000 J0.0000
G1 X38.0808 Y-2.0000 Z14.4000
G3 X45.7000 Y-10.2036 Z14.4000 I3.9192 J-4.0000
G1 X45.7000 Y-13.4964 Z14.4000
G3 X38.0808 Y-21.7000 Z14.4000 I-3.7000 J-4.2036
G1 X33.9192 Y-21.7000 Z14.4000
G3 X35.6000 Y-17.7000 Z14.4000 I-3.9192 J4.0000
G3 X26.0808 Y-21.7000 Z14.4000 I-5.6000 J0.0000
G1 X21.9192 Y-21.7000 Z14.4000
G3 X23.6000 Y-17.7000 Z14.4000 I-3.9192 J4.0000
G3 X14.0808 Y-21.7000 Z14.4000 I-5.6000 J0.0000
G1 X9.9192 Y-21.7000 Z14.4000
G3 X11.6000 Y-17.7000 Z14.4000 I-3.9192 J4.0000
G3 X2.0000 Y-13.7808 Z14.4000 I-5.6000 J0.0000
G1 X2.0000 Y-9.9192 Z14.4000
G3 X11.6000 Y-6.0000 Z14.4000 I4.0000 J3.9192
G3 X9.9192 Y-2.0000 Z14.4000 I-5.6000 J0.0000
G0 X9.9192 Y-2.0000 Z20.0000
G0 X2.0000 Y-21.6192 Z20.0000
G1 X2.0000 Y-21.6192 Z14.4000
G3 X2.0808 Y-21.7000 Z14.4000 I4.0000 J3.9192
G1 X2.0000 Y-21.7000 Z14.4000
G1 X2.0000 Y-21.6192 Z14.4000
G0 X2.0000 Y-21.6192 Z20.0000
G0 X11.8788 Y-3.0000 Z20.0000
G1 X11.8788 Y-3.0000 Z14.4000
G1 X12.1212 Y-3.0000 Z14.4000
G3 X12.0000 Y-3.2505 Z14.4000 I5.8788 J-3.0000
G3 X11.8788 Y-3.0000 Z14.4000 I-6.0000 J-2.7495
G0 X11.8788 Y-3.0000 Z20.0000
G0 X33.0557 Y-11.8500 Z20.0000
G1 X33.0557 Y-11.8500 Z14.4000
G3 X36.0000 Y-8.7495 Z14.4000 I-3.0557 J5.8500
G3 X38.9443 Y-11.8500 Z14.4000 I6.0000 J2.7495
G3 X36.0000 Y-14.9505 Z14.4000 I3.0557 J-5.8500
G3 X33.0557 Y-11.8500 Z14.4000 I-6.0000 J-2.7495
G0 X33.0557 Y-11.8500 Z20.0000
G0 X23.8788 Y-20.7000 Z20.0000
G1 X23.8788 Y-20.7000 Z14.4000
G3 X24.0000 Y-20.4495 Z14.4000 I-5.8788 J3.0000
G3 X24.1212 Y-20.7000 Z14.4000 I6.0000 J2.7495
G1 X23.8788 Y-20.7000 Z14.4000
G0 X23.8788 Y-20.7000 Z20.0000
G0 X23.8788 Y-3.0000 Z20.0000
G1 X23.8788 Y-3.0000 Z14.4000
G1 X24.1212 Y-3.0000 Z14.4000
G3 X24.0000 Y-3.2505 Z14.4000 I5.8788 J-3.0000
G3 X23.8788 Y-3.0000 Z14.4000 I-6.0000 J-2.7495
G0 X23.8788 Y-3.0000 Z20.0000
G0 X21.0557 Y-11.8500 Z20.0000
G1 X21.0557 Y-11.8500 Z14.4000
G3 X24.0000 Y-8.7495 Z14.4000 I-3.0557 J5.8500
G3 X26.9443 Y-11.8500 Z14.4000 I6.0000 J2.7495
G3 X24.0000 Y-14.9505 Z14.4000 I3.0557 J-5.8500
G3 X21.0557 Y-11.8500 Z14.4000 I-6.0000 J-2.7495
G0 X21.0557 Y-11.8500 Z20.0000
G0 X9.0557 Y-11.8500 Z20.0000
G1 X9.0557 Y-11.8500 Z14.4000
G3 X12.0000 Y-8.7495 Z14.4000 I-3.0557 J5.8500
G3 X14.9443 Y-11.8500 Z14.4000 I6.0000 J2.7495
G3 X12.0000 Y-14.9505 Z14.4000 I3.0557 J-5.8500
G3 X9.0557 Y-11.8500 Z14.4000 I-6.0000 J-2.7495
G0 X9.0557 Y-11.8500 Z20.0000
G0 X11.8788 Y-20.7000 Z20.0000
G1 X11.8788 Y-20.7000 Z14.4000
G3 X12.0000 Y-20.4495 Z14.4000 I-5.8788 J3.0000
G3 X12.1212 Y-20.7000 Z14.4000 I6.0000 J2.7495
G1 X11.8788 Y-20.7000 Z14.4000
G0 X11.8788 Y-20.7000 Z20.0000
G0 X36.0000 Y-3.2505 Z20.0000
G1 X36.0000 Y-3.2505 Z14.4000
G3 X35.8788 Y-3.0000 Z14.4000 I-6.0000 J-2.7495
G1 X36.1212 Y-3.0000 Z14.4000
G3 X36.0000 Y-3.2505 Z14.4000 I5.8788 J-3.0000
G0 X36.0000 Y-3.2505 Z20.0000
G0 X36.0000 Y-20.4495 Z20.0000
G1 X36.0000 Y-20.4495 Z14.4000
G3 X36.1212 Y-20.7000 Z14.4000 I6.0000 J2.7495
G1 X35.8788 Y-20.7000 Z14.4000
G3 X36.0000 Y-20.4495 Z14.4000 I-5.8788 J3.0000
G0 X36.0000 Y-20.4495 Z20.0000
G0 X10.8515 Y-11.8500 Z20.0000
G1 X10.8515 Y-11.8500 Z14.4000
G3 X12.0000 Y-10.6648 Z14.4000 I-4.8515 J5.8500
G3 X13.1485 Y-11.8500 Z14.4000 I6.0000 J4.6648
G3 X12.0000 Y-13.0352 Z14.4000 I4.8515 J-5.8500
G3 X10.8515 Y-11.8500 Z14.4000 I-6.0000 J-4.6648
G0 X10.8515 Y-11.8500 Z20.0000
G0 X34.8515 Y-11.8500 Z20.0000
G1 X34.8515 Y-11.8500 Z14.4000
G3 X36.0000 Y-10.6648 Z14.4000 I-4.8515 J5.8500
G3 X37.1485 Y-11.8500 Z14.4000 I6.0000 J4.6648
G3 X36.0000 Y-13.0352 Z14.4000 I4.8515 J-5.8500
G3 X34.8515 Y-11.8500 Z14.4000 I-6.0000 J-4.6648
G0 X34.8515 Y-11.8500 Z20.0000
G0 X24.0000 Y-10.6648 Z20.0000
G1 X24.0000 Y-10.6648 Z14.4000
G3 X25.1485 Y-11.8500 Z14.4000 I6.0000 J4.6648
G3 X24.0000 Y-13.0352 Z14.4000 I4.8515 J-5.8500
G3 X22.8515 Y-11.8500 Z14.4000 I-6.0000 J-4.6648
G3 X24.0000 Y-10.6648 Z14.4000 I-4.8515 J5.8500
G90
G21
G40
G0 X1.0000 Y-1.0000 Z12.4000
G1 X46.7000 Y-1.0000 Z12.4000
G1 X46.7000 Y-22.7000 Z12.4000
G1 X1.0000 Y-22.7000 Z12.4000
G1 X1.0000 Y-1.0000 Z12.4000
G0 X1.0000 Y-1.0000 Z18.0000
G0 X34.6000 Y-6.0000 Z18.0000
G1 X34.6000 Y-6.0000 Z12.4000
G3 X34.6000 Y-6.0000 Z12.4000 I-4.6000 J0.0000
G0 X34.6000 Y-6.0000 Z18.0000
G0 X34.6000 Y-17.7000 Z18.0000
G1 X34.6000 Y-17.7000 Z12.4000
G3 X34.6000 Y-17.7000 Z12.4000 I-4.6000 J0.0000
G0 X34.6000 Y-17.7000 Z18.0000
G0 X22.6000 Y-17.7000 Z18.0000
G1 X22.6000 Y-17.7000 Z12.4000
G3 X22.6000 Y-17.7000 Z12.4000 I-4.6000 J0.0000
G0 X22.6000 Y-17.7000 Z18.0000
G0 X22.6000 Y-6.0000 Z18.0000
G1 X22.6000 Y-6.0000 Z12.4000
G3 X22.6000 Y-6.0000 Z12.4000 I-4.6000 J0.0000
G0 X22.6000 Y-6.0000 Z18.0000
G0 X10.6000 Y-6.0000 Z18.0000
G1 X10.6000 Y-6.0000 Z12.4000
G3 X10.6000 Y-6.0000 Z12.4000 I-4.6000 J0.0000
G0 X10.6000 Y-6.0000 Z18.0000
G0 X10.6000 Y-17.7000 Z18.0000
G1 X10.6000 Y-17.7000 Z12.4000
G3 X10.6000 Y-17.7000 Z12.4000 I-4.6000 J0.0000
G0 X10.6000 Y-17.7000 Z18.0000
G0 X46.6000 Y-6.0000 Z18.0000
G1 X46.6000 Y-6.0000 Z12.4000
G3 X46.6000 Y-6.0000 Z12.4000 I-4.6000 J0.0000
G0 X46.6000 Y-6.0000 Z18.0000
G0 X46.6000 Y-17.7000 Z18.0000
G1 X46.6000 Y-17.7000 Z12.4000
G3 X46.6000 Y-17.7000 Z12.4000 I-4.6000 J0.0000
G0 X46.6000 Y-17.7000 Z18.0000
G0 X2.0000 Y-2.0000 Z18.0000
G1 X2.0000 Y-2.0000 Z12.4000
G1 X2.0808 Y-2.0000 Z12.4000
G3 X2.0000 Y-2.0808 Z12.4000 I3.9192 J-4.0000
G1 X2.0000 Y-2.0000 Z12.4000
G0 X2.0000 Y-2.0000 Z18.0000
G0 X9.9192 Y-2.0000 Z18.0000
G1 X9.9192 Y-2.0000 Z12.4000
G1 X14.0808 Y-2.0000 Z12.4000
G3 X23.6000 Y-6.0000 Z12.4000 I3.9192 J-4.0000
G3 X21.9192 Y-2.0000 Z12.4000 I-5.6000 J0.0000
G1 X26.0808 Y-2.0000 Z12.4000
G3 X35.6000 Y-6.0000 Z12.4000 I3.9192 J-4.0000
G3 X33.9192 Y-2.0000 Z12.4000 I-5.6000 J0.0000
G1 X38.0808 Y-2.0000 Z12.4000
G3 X45.7000 Y-10.2036 Z12.4000 I3.9192 J-4.0000
G1 X45.7000 Y-13.4964 Z12.4000
G3 X38.0808 Y-21.7000 Z12.4000 I-3.7000 J-4.2036
G1 X33.9192 Y-21.7000 Z12.4000
G3 X35.6000 Y-17.7000 Z12.4000 I-3.9192 J4.0000
G3 X26.0808 Y-21.7000 Z12.4000 I-5.6000 J0.0000
G1 X21.9192 Y-21.7000 Z12.4000
G3 X23.6000 Y-17.7000 Z12.4000 I-3.9192 J4.0000
G3 X14.0808 Y-21.7000 Z12.4000 I-5.6000 J0.0000
G1 X9.9192 Y-21.7000 Z12.4000
G3 X11.6000 Y-17.7000 Z12.4000 I-3.9192 J4.0000
G3 X2.0000 Y-13.7808 Z12.4000 I-5.6000 J0.0000
G1 X2.0000 Y-9.9192 Z12.4000
G3 X11.6000 Y-6.0000 Z12.4000 I4.0000 J3.9192
G3 X9.9192 Y-2.0000 Z12.4000 I-5.6000 J0.0000
G0 X9.9192 Y-2.0000 Z18.0000
G0 X2.0000 Y-21.6192 Z18.0000
G1 X2.0000 Y-21.6192 Z12.4000
G3 X2.0808 Y-21.7000 Z12.4000 I4.0000 J3.9192
G1 X2.0000 Y-21.7000 Z12.4000
G1 X2.0000 Y-21.6192 Z12.4000
G0 X2.0000 Y-21.6192 Z18.0000
G0 X11.8788 Y-3.0000 Z18.0000
G1 X11.8788 Y-3.0000 Z12.4000
G1 X12.1212 Y-3.0000 Z12.4000
G3 X12.0000 Y-3.2505 Z12.4000 I5.8788 J-3.0000
G3 X11.8788 Y-3.0000 Z12.4000 I-6.0000 J-2.7495
G0 X11.8788 Y-3.0000 Z18.0000
G0 X33.0557 Y-11.8500 Z18.0000
G1 X33.0557 Y-11.8500 Z12.4000
G3 X36.0000 Y-8.7495 Z12.4000 I-3.0557 J5.8500
G3 X38.9443 Y-11.8500 Z12.4000 I6.0000 J2.7495
G3 X36.0000 Y-14.9505 Z12.4000 I3.0557 J-5.8500
G3 X33.0557 Y-11.8500 Z12.4000 I-6.0000 J-2.7495
G0 X33.0557 Y-11.8500 Z18.0000
G0 X23.8788 Y-20.7000 Z18.0000
G1 X23.8788 Y-20.7000 Z12.4000
G3 X24.0000 Y-20.4495 Z12.4000 I-5.8788 J3.0000
G3 X24.1212 Y-20.7000 Z12.4000 I6.0000 J2.7495
G1 X23.8788 Y-20.7000 Z12.4000
G0 X23.8788 Y-20.7000 Z18.0000
G0 X23.8788 Y-3.0000 Z18.0000
G1 X23.8788 Y-3.0000 Z12.4000
G1 X24.1212 Y-3.0000 Z12.4000
G3 X24.0000 Y-3.2505 Z12.4000 I5.8788 J-3.0000
G3 X23.8788 Y-3.0000 Z12.4000 I-6.0000 J-2.7495
G0 X23.8788 Y-3.0000 Z18.0000
G0 X21.0557 Y-11.8500 Z18.0000
G1 X21.0557 Y-11.8500 Z12.4000
G3 X24.0000 Y-8.7495 Z12.4000 I-3.0557 J5.8500
G3 X26.9443 Y-11.8500 Z12.4000 I6.0000 J2.7495
G3 X24.0000 Y-14.9505 Z12.4000 I3.0557 J-5.8500
G3 X21.0557 Y-11.8500 Z12.4000 I-6.0000 J-2.7495
G0 X21.0557 Y-11.8500 Z18.0000
G0 X9.0557 Y-11.8500 Z18.0000
G1 X9.0557 Y-11.8500 Z12.4000
G3 X12.0000 Y-8.7495 Z12.4000 I-3.0557 J5.8500
G3 X14.9443 Y-11.8500 Z12.4000 I6.0000 J2.7495
G3 X12.0000 Y-14.9505 Z12.4000 I3.0557 J-5.8500
G3 X9.0557 Y-11.8500 Z12.4000 I-6.0000 J-2.7495
G0 X9.0557 Y-11.8500 Z18.0000
G0 X11.8788 Y-20.7000 Z18.0000
G1 X11.8788 Y-20.7000 Z12.4000
G3 X12.0000 Y-20.4495 Z12.4000 I-5.8788 J3.0000
G3 X12.1212 Y-20.7000 Z12.4000 I6.0000 J2.7495
G1 X11.8788 Y-20.7000 Z12.4000
G0 X11.8788 Y-20.7000 Z18.0000
G0 X36.0000 Y-3.2505 Z18.0000
G1 X36.0000 Y-3.2505 Z12.4000
G3 X35.8788 Y-3.0000 Z12.4000 I-6.0000 J-2.7495
G1 X36.1212 Y-3.0000 Z12.4000
G3 X36.0000 Y-3.2505 Z12.4000 I5.8788 J-3.0000
G0 X36.0000 Y-3.2505 Z18.0000
G0 X36.0000 Y-20.4495 Z18.0000
G1 X36.0000 Y-20.4495 Z12.4000
G3 X36.1212 Y-20.7000 Z12.4000 I6.0000 J2.7495
G1 X35.8788 Y-20.7000 Z12.4000
G3 X36.0000 Y-20.4495 Z12.4000 I-5.8788 J3.0000
G0 X36.0000 Y-20.4495 Z18.0000
G0 X10.8515 Y-11.8500 Z18.0000
G1 X10.8515 Y-11.8500 Z12.4000
G3 X12.0000 Y-10.6648 Z12.4000 I-4.8515 J5.8500
G3 X13.1485 Y-11.8500 Z12.4000 I6.0000 J4.6648
G3 X12.0000 Y-13.0352 Z12.4000 I4.8515 J-5.8500
G3 X10.8515 Y-11.8500 Z12.4000 I-6.0000 J-4.6648
G0 X10.8515 Y-11.8500 Z18.0000
G0 X34.8515 Y-11.8500 Z18.0000
G1 X34.8515 Y-11.8500 Z12.4000
G3 X36.0000 Y-10.6648 Z12.4000 I-4.8515 J5.8500
G3 X37.1485 Y-11.8500 Z12.4000 I6.0000 J4.6648
G3 X36.0000 Y-13.0352 Z12.4000 I4.8515 J-5.8500
G3 X34.8515 Y-11.8500 Z12.4000 I-6.0000 J-4.6648
G0 X34.8515 Y-11.8500 Z18.0000
G0 X24.0000 Y-10.6648 Z18.0000
G1 X24.0000 Y-10.6648 Z12.4000
G3 X25.1485 Y-11.8500 Z12.4000 I6.0000 J4.6648
G3 X24.0000 Y-13.0352 Z12.4000 I4.8515 J-5.8500
G3 X22.8515 Y-11.8500 Z12.4000 I-6.0000 J-4.6648
G3 X24.0000 Y-10.6648 Z12.4000 I-4.8515 J5.8500
(finish operation: Project)
(begin postamble)
M05
G00 X-1.0 Y1.0
G17 G90
M2
