; generated by Slic3r 1.2.9 on 2016-01-10 at 19:36:20

; external perimeters extrusion width = 0.50mm
; perimeters extrusion width = 0.72mm
; infill extrusion width = 0.72mm
; solid infill extrusion width = 0.72mm
; top infill extrusion width = 0.72mm

M107
M104 S200 ; set temperature
G28 ; home all axes
G1 Z5 F5000 ; lift nozzle

M109 S200 ; wait for temperature to be reached
G21 ; set units to millimeters
G90 ; use absolute coordinates
M82 ; use absolute distances for extrusion
G92 E0
G1 Z0.500 F7800.000
G1 E-2.00000 F2400.00000
G92 E0
G1 X72.169 Y82.608 F7800.000
G1 E2.00000 F2400.00000
G1 X72.562 Y82.265 E2.03293 F1800.000
G1 X74.737 Y81.404 E2.18067
G1 X76.150 Y81.257 E2.27035
G1 X123.850 Y81.257 E5.28239
G1 X126.156 Y81.654 E5.43014
G1 X128.196 Y82.800 E5.57788 F1800.000
G1 X129.735 Y84.562 E5.72562
G1 X130.596 Y86.737 E5.87336
G1 X130.743 Y88.150 E5.96304
G1 X130.743 Y111.850 E7.45959
G1 X130.346 Y114.156 E7.60733
G1 X129.200 Y116.196 E7.75507
G1 X127.438 Y117.735 E7.90281
G1 X125.263 Y118.596 E8.05055
G1 X123.850 Y118.743 E8.14023
G1 X76.150 Y118.743 E11.15228
G1 X73.844 Y118.346 E11.30002
G1 X71.804 Y117.200 E11.44776
G1 X70.265 Y115.438 E11.59550
G1 X69.404 Y113.263 E11.74324
G1 X69.257 Y111.850 E11.83292
G1 X69.257 Y88.150 E13.32947
G1 X69.654 Y85.844 E13.47721
G1 X70.800 Y83.804 E13.62495
G1 X72.113 Y82.657 E13.73503
G1 E11.73503 F2400.00000
G92 E0
G1 X122.550 Y110.550 F7800.000
G1 E2.00000 F2400.00000
G1 X77.450 Y110.550 E4.84786 F1800.000
G1 X77.450 Y89.450 E6.18024
G1 X122.550 Y89.450 E9.02810
G1 X122.550 Y110.475 E10.35573
G1 X122.550 Y111.050 F7800.000
G1 X123.350 Y111.350 F7800.000
G1 X76.650 Y111.350 E13.30463 F1800.000
G1 X76.650 Y88.650 E14.73804
G1 X123.350 Y88.650 E17.68693
G1 X123.350 Y111.275 E19.11560
G1 X122.917 Y111.100 F7800.000
G1 E17.11560 F2400.00000
G92 E0
G1 X123.850 Y111.850 F7800.000
G1 X123.850 Y111.850 F7800.000
G1 X83.945 Y99.620 F7800.000
G1 E2.00000 F2400.00000
G1 X84.189 Y98.667 E2.06213 F1800.000
G1 X84.245 Y98.518 E2.07219
G1 X84.721 Y97.659 E2.13422
G1 X85.448 Y96.884 E2.20132
G1 X86.345 Y96.315 E2.26841
G1 X87.299 Y96.005 E2.33173
G1 X87.453 Y95.978 E2.34163
G1 X88.439 Y95.923 E2.40393
G1 X89.460 Y96.119 E2.46960
G1 X90.350 Y96.535 E2.53164
G1 X90.483 Y96.619 E2.54163
G1 X91.240 Y97.248 E2.60375
G1 X91.864 Y98.108 E2.67085
G1 X92.228 Y99.021 E2.73289
G1 X92.268 Y99.175 E2.74296
G1 X92.389 Y100.150 E2.80499
G1 X92.256 Y101.204 E2.87209
G1 X91.896 Y102.119 E2.93412
G1 X91.819 Y102.258 E2.94419
G1 X91.240 Y103.052 E3.00623
G1 X90.421 Y103.729 E3.07332
G1 X89.550 Y104.142 E3.13423
G1 X89.401 Y104.193 E3.14412
G1 X88.498 Y104.367 E3.20220
G1 X88.336 Y104.378 E3.21247
G1 X87.356 Y104.314 E3.27450
G1 X86.345 Y103.985 E3.34160
G1 X85.448 Y103.416 E3.40869
G1 X84.774 Y102.702 E3.47073
G1 X84.680 Y102.572 E3.48079
G1 X84.248 Y101.780 E3.53778
G1 X84.187 Y101.633 E3.54783
G1 X83.945 Y100.681 E3.60986
G1 X83.945 Y99.620 E3.67686
G1 E1.67686 F2400.00000
G92 E0
G1 X76.150 Y111.850 F7800.000
G1 X76.150 Y111.850 F7800.000
G1 X95.942 Y100.598 F7800.000
G1 E2.00000 F2400.00000
G1 X95.946 Y99.619 E2.06183 F1800.000
G1 X96.209 Y98.590 E2.12892
G1 X96.721 Y97.659 E2.19601
G1 X97.392 Y96.941 E2.25805
G1 X97.514 Y96.839 E2.26812
G1 X98.276 Y96.355 E2.32510
G1 X98.424 Y96.287 E2.33536
G1 X99.354 Y95.988 E2.39710
G1 X100.336 Y95.925 E2.45922
G1 X100.495 Y95.932 E2.46927
G1 X101.382 Y96.101 E2.52625
G1 X101.533 Y96.151 E2.53632
G1 X102.421 Y96.571 E2.59836
G1 X103.240 Y97.248 E2.66545
G1 X103.819 Y98.042 E2.72749
G1 X103.896 Y98.181 E2.73756
G1 X104.256 Y99.096 E2.79960
G1 X104.389 Y100.150 E2.86669
G1 X104.256 Y101.204 E2.93378
G1 X103.903 Y102.102 E2.99469
G1 X103.830 Y102.240 E3.00459
G1 X103.240 Y103.052 E3.06791
G1 X102.421 Y103.729 E3.13501
G1 X101.533 Y104.149 E3.19704
G1 X101.382 Y104.199 E3.20711
G1 X100.416 Y104.380 E3.26915
G1 X99.356 Y104.314 E3.33624
G1 X98.421 Y104.012 E3.39828
G1 X98.276 Y103.945 E3.40835
G1 X97.448 Y103.416 E3.47039
G1 X96.722 Y102.641 E3.53747
G1 X96.245 Y101.782 E3.59950
G1 X96.187 Y101.633 E3.60957
G1 X95.962 Y100.759 E3.66655
G1 X95.942 Y100.598 E3.67681
G1 E1.67681 F2400.00000
G92 E0
G1 X123.850 Y111.850 F7800.000
G1 X123.850 Y111.850 F7800.000
G1 X107.942 Y100.598 F7800.000
G1 E2.00000 F2400.00000
G1 X107.946 Y99.620 E2.06173 F1800.000
G1 X108.219 Y98.569 E2.13031
G1 X108.721 Y97.659 E2.19598
G1 X109.392 Y96.941 E2.25802
G1 X109.514 Y96.839 E2.26809
G1 X110.276 Y96.355 E2.32507
G1 X110.424 Y96.287 E2.33533
G1 X111.354 Y95.988 E2.39707
G1 X112.336 Y95.925 E2.45919
G1 X112.495 Y95.932 E2.46924
G1 X113.382 Y96.101 E2.52623
G1 X113.533 Y96.151 E2.53630
G1 X114.421 Y96.571 E2.59833
G1 X115.240 Y97.248 E2.66543
G1 X115.819 Y98.042 E2.72746
G1 X115.896 Y98.181 E2.73753
G1 X116.256 Y99.096 E2.79957
G1 X116.389 Y100.150 E2.86666
G1 X116.268 Y101.125 E2.92870
G1 X116.228 Y101.279 E2.93877
G1 X115.851 Y102.210 E3.00219
G1 X115.240 Y103.052 E3.06785
G1 X114.485 Y103.680 E3.12989
G1 X114.350 Y103.765 E3.13996
G1 X113.460 Y104.181 E3.20200
G1 X112.416 Y104.380 E3.26909
G1 X111.435 Y104.321 E3.33113
G1 X111.279 Y104.291 E3.34120
G1 X110.345 Y103.985 E3.40323
G1 X109.448 Y103.416 E3.47032
G1 X108.722 Y102.643 E3.53732
G1 X108.248 Y101.780 E3.59945
G1 X108.187 Y101.633 E3.60950
G1 X107.962 Y100.759 E3.66649
G1 X107.942 Y100.598 E3.67675
G1 Z0.800 F7800.000
G1 E1.67675 F2400.00000
G92 E0
G1 X122.300 Y110.300 F7800.000
G1 E2.00000 F2400.00000
G1 X77.700 Y110.300 E2.82458 F1800.000
G1 X77.700 Y89.700 E3.20543
G1 X122.300 Y89.700 E4.03001
G1 X122.300 Y110.225 E4.40948
G1 X122.300 Y110.800 F7800.000
G1 X123.600 Y111.600 F7800.000
G1 X76.400 Y111.600 E5.28213 F1800.000
G1 X76.400 Y88.400 E5.71106
G1 X123.600 Y88.400 E6.58370
G1 X123.600 Y111.525 E7.01124
G1 X123.167 Y111.350 F7800.000
G1 E5.01124 F2400.00000
G92 E0
G1 X123.850 Y111.850 F7800.000
G1 X123.850 Y111.850 F7800.000
G1 X91.881 Y101.108 F7800.000
G1 E2.00000 F2400.00000
G1 X91.526 Y102.006 E2.01785 F900.000
G1 X90.958 Y102.787 E2.03570
G1 X90.214 Y103.402 E2.05355
G1 X89.340 Y103.813 E2.07141
G1 X88.392 Y103.994 E2.08926
G1 X87.428 Y103.934 E2.10711
G1 X86.510 Y103.635 E2.12496
G1 X85.695 Y103.118 E2.14281
G1 X85.034 Y102.414 E2.16066
G1 X84.569 Y101.568 E2.17852
G1 X84.329 Y100.633 E2.19636
G1 X84.324 Y99.685 E2.21389
G1 X84.569 Y98.732 E2.23208
G1 X85.034 Y97.886 E2.24993
G1 X85.695 Y97.182 E2.26778
G1 X86.511 Y96.664 E2.28566
G1 X87.476 Y96.363 E2.30435
G1 X88.392 Y96.306 E2.32131 F900.000
G1 X89.340 Y96.487 E2.33917
G1 X90.214 Y96.898 E2.35702
G1 X90.958 Y97.513 E2.37487
G1 X91.526 Y98.294 E2.39272
G1 X91.881 Y99.192 E2.41057
G1 X92.002 Y100.150 E2.42842
G1 X91.890 Y101.034 E2.44489
G1 X92.223 Y101.472 F7800.000
G1 X92.647 Y101.205 F7800.000
G1 X92.635 Y101.302 E2.44669 F900.000
G1 X92.208 Y102.381 E2.46815
G1 X91.526 Y103.320 E2.48961
G1 X90.631 Y104.060 E2.51107
G1 X89.581 Y104.554 E2.53253
G1 X88.441 Y104.771 E2.55399
G1 X87.282 Y104.698 E2.57545
G1 X86.178 Y104.340 E2.59691
G1 X85.198 Y103.718 E2.61837
G1 X84.404 Y102.872 E2.63983
G1 X83.837 Y101.824 E2.66185
G1 X83.556 Y100.730 E2.68273
G1 X83.556 Y99.570 E2.70419
G1 X83.845 Y98.445 E2.72565
G1 X84.404 Y97.428 E2.74711
G1 X85.198 Y96.582 E2.76857
G1 X86.178 Y95.960 E2.79003
G1 X87.282 Y95.602 E2.81149
G1 X88.472 Y95.535 E2.83351
G1 X89.581 Y95.746 E2.85439 F900.000
G1 X90.631 Y96.240 E2.87585
G1 X91.526 Y96.980 E2.89731
G1 X92.208 Y97.919 E2.91877
G1 X92.635 Y98.998 E2.94023
G1 X92.781 Y100.150 E2.96169
G1 X92.657 Y101.130 E2.97996
G1 X92.557 Y101.243 F7800.000
G1 E0.97996 F2400.00000
G92 E0
G1 X76.150 Y111.850 F7800.000
G1 X76.150 Y111.850 F7800.000
G1 X96.328 Y100.633 F7800.000
G1 E2.00000 F2400.00000
G1 X96.328 Y99.667 E2.01785 F900.000
G1 X96.569 Y98.732 E2.03570
G1 X97.034 Y97.886 E2.05355
G1 X97.695 Y97.182 E2.07141
G1 X98.511 Y96.664 E2.08929
G1 X99.476 Y96.363 E2.10797
G1 X100.392 Y96.306 E2.12494 F900.000
G1 X101.340 Y96.487 E2.14279
G1 X102.214 Y96.898 E2.16064
G1 X102.958 Y97.513 E2.17849
G1 X103.526 Y98.294 E2.19634
G1 X103.881 Y99.192 E2.21419
G1 X104.002 Y100.150 E2.23205
G1 X103.881 Y101.108 E2.24990
G1 X103.526 Y102.006 E2.26775
G1 X102.958 Y102.787 E2.28560
G1 X102.214 Y103.402 E2.30345
G1 X101.341 Y103.813 E2.32130
G1 X100.399 Y103.995 E2.33903
G1 X99.428 Y103.934 E2.35701
G1 X98.510 Y103.635 E2.37486
G1 X97.695 Y103.118 E2.39271
G1 X97.034 Y102.414 E2.41057
G1 X96.569 Y101.568 E2.42842
G1 X96.347 Y100.705 E2.44488
G1 X95.876 Y100.420 F7800.000
G1 X95.580 Y100.825 F7800.000
G1 X95.556 Y100.730 E2.44669 F900.000
G1 X95.556 Y99.570 E2.46815
G1 X95.845 Y98.445 E2.48960
G1 X96.404 Y97.428 E2.51106
G1 X97.198 Y96.582 E2.53252
G1 X98.178 Y95.960 E2.55398
G1 X99.282 Y95.602 E2.57544
G1 X100.472 Y95.535 E2.59747
G1 X101.581 Y95.746 E2.61834 F900.000
G1 X102.631 Y96.240 E2.63980
G1 X103.525 Y96.980 E2.66126
G1 X104.208 Y97.919 E2.68272
G1 X104.635 Y98.998 E2.70418
G1 X104.781 Y100.150 E2.72564
G1 X104.635 Y101.302 E2.74710
G1 X104.208 Y102.381 E2.76856
G1 X103.525 Y103.320 E2.79002
G1 X102.631 Y104.060 E2.81148
G1 X101.581 Y104.554 E2.83294
G1 X100.441 Y104.771 E2.85440
G1 X99.282 Y104.698 E2.87586
G1 X98.178 Y104.340 E2.89732
G1 X97.198 Y103.718 E2.91878
G1 X96.404 Y102.872 E2.94024
G1 X95.845 Y101.855 E2.96170
G1 X95.599 Y100.898 E2.97997
G1 X95.650 Y100.757 F7800.000
G1 E0.97997 F2400.00000
G92 E0
G1 X123.850 Y111.850 F7800.000
G1 X123.850 Y111.850 F7800.000
G1 X108.328 Y100.633 F7800.000
G1 E2.00000 F2400.00000
G1 X108.328 Y99.667 E2.01785 F900.000
G1 X108.569 Y98.732 E2.03570
G1 X109.034 Y97.886 E2.05355
G1 X109.695 Y97.182 E2.07141
G1 X110.511 Y96.664 E2.08929
G1 X111.476 Y96.363 E2.10797
G1 X112.392 Y96.306 E2.12494 F900.000
G1 X113.340 Y96.487 E2.14279
G1 X114.214 Y96.898 E2.16064
G1 X114.958 Y97.513 E2.17849
G1 X115.526 Y98.294 E2.19634
G1 X115.881 Y99.192 E2.21419
G1 X116.002 Y100.150 E2.23205
G1 X115.881 Y101.108 E2.24990
G1 X115.526 Y102.006 E2.26775
G1 X114.958 Y102.787 E2.28560
G1 X114.214 Y103.402 E2.30345
G1 X113.341 Y103.813 E2.32130
G1 X112.399 Y103.995 E2.33903
G1 X111.428 Y103.934 E2.35701
G1 X110.510 Y103.635 E2.37486
G1 X109.695 Y103.118 E2.39271
G1 X109.034 Y102.414 E2.41057
G1 X108.569 Y101.568 E2.42842
G1 X108.347 Y100.705 E2.44488
G1 X107.876 Y100.420 F7800.000
G1 X107.580 Y100.825 F7800.000
G1 X107.556 Y100.730 E2.44669 F900.000
G1 X107.556 Y99.570 E2.46815
G1 X107.845 Y98.445 E2.48960
G1 X108.404 Y97.428 E2.51106
G1 X109.198 Y96.582 E2.53252
G1 X110.178 Y95.960 E2.55398
G1 X111.282 Y95.602 E2.57544
G1 X112.472 Y95.535 E2.59747
G1 X113.581 Y95.746 E2.61834 F900.000
G1 X114.631 Y96.240 E2.63980
G1 X115.525 Y96.980 E2.66126
G1 X116.208 Y97.919 E2.68272
G1 X116.635 Y98.998 E2.70418
G1 X116.781 Y100.150 E2.72564
G1 X116.635 Y101.302 E2.74710
G1 X116.208 Y102.381 E2.76856
G1 X115.525 Y103.320 E2.79002
G1 X114.631 Y104.060 E2.81148
G1 X113.581 Y104.554 E2.83294
G1 X112.441 Y104.771 E2.85440
G1 X111.282 Y104.698 E2.87586
G1 X110.178 Y104.340 E2.89732
G1 X109.198 Y103.718 E2.91878
G1 X108.404 Y102.872 E2.94024
G1 X107.845 Y101.855 E2.96170
G1 X107.599 Y100.898 E2.97997
G1 X107.650 Y100.757 F7800.000
G1 X107.954 Y100.729 F7800.000
G1 X107.943 Y99.618 E3.01081 F1200.000
G1 X108.207 Y98.589 E3.04034 F1200.000
G1 X108.712 Y97.670 E3.06947
G1 X109.447 Y96.882 E3.09939
G1 X110.362 Y96.306 E3.12943
G1 X111.356 Y95.990 E3.15841
G1 X112.416 Y95.918 E3.18792
G1 X113.460 Y96.117 E3.21745
G1 X114.410 Y96.563 E3.24658
G1 X115.241 Y97.247 E3.27650
G1 X115.872 Y98.120 E3.30642
G1 X116.258 Y99.095 E3.33555
G1 X116.391 Y100.150 E3.36508
G1 X116.253 Y101.218 E3.39499
G1 X115.866 Y102.193 E3.42412
G1 X115.241 Y103.053 E3.45365
G1 X114.410 Y103.737 E3.48357
G1 X113.460 Y104.183 E3.51270
G1 X112.416 Y104.383 E3.54223
G1 X111.355 Y104.316 E3.57176
G1 X110.358 Y103.992 E3.60089
G1 X109.447 Y103.418 E3.63081
G1 X108.712 Y102.630 E3.66072
G1 X108.207 Y101.711 E3.68985
G1 X107.973 Y100.801 E3.71595
G1 E1.71595 F2400.00000
G92 E0
G1 X123.850 Y111.850 F7800.000
G1 X123.850 Y111.850 F7800.000
G1 X104.375 Y100.277 F7800.000
G1 E2.00000 F2400.00000
G1 X104.258 Y101.205 E2.02598 F1200.000
G1 X103.866 Y102.193 E2.05551
G1 X103.241 Y103.053 E2.08504
G1 X102.434 Y103.722 E2.11417
G1 X101.447 Y104.186 E2.14446
G1 X100.416 Y104.383 E2.17361
G1 X99.370 Y104.317 E2.20274
G1 X98.332 Y103.980 E2.23304
G1 X97.447 Y103.418 E2.26218
G1 X96.719 Y102.643 E2.29170
G1 X96.203 Y101.697 E2.32162
G1 X95.943 Y100.682 E2.35075
G1 X95.943 Y99.618 E2.38028
G1 X96.214 Y98.576 E2.41020 F1200.000
G1 X96.719 Y97.657 E2.43933
G1 X97.447 Y96.882 E2.46886
G1 X98.362 Y96.306 E2.49890
G1 X99.356 Y95.990 E2.52788
G1 X100.416 Y95.918 E2.55739
G1 X101.474 Y96.122 E2.58731
G1 X102.422 Y96.569 E2.61644
G1 X103.241 Y97.247 E2.64597
G1 X103.866 Y98.107 E2.67550
G1 X104.253 Y99.082 E2.70463
G1 X104.389 Y100.136 E2.73415
G1 X104.385 Y100.202 E2.73600
G1 E0.73600 F2400.00000
G92 E0
G1 X76.150 Y111.850 F7800.000
G1 X76.150 Y111.850 F7800.000
G1 X92.391 Y100.150 F7800.000
G1 E2.00000 F2400.00000
G1 X92.258 Y101.205 E2.02953 F1200.000
G1 X91.872 Y102.180 E2.05866
G1 X91.241 Y103.053 E2.08858
G1 X90.422 Y103.731 E2.11810
G1 X89.474 Y104.178 E2.14724
G1 X88.402 Y104.382 E2.17754
G1 X87.355 Y104.316 E2.20667
G1 X86.344 Y103.987 E2.23620
G1 X85.447 Y103.418 E2.26573
G1 X84.729 Y102.653 E2.29486
G1 X84.203 Y101.697 E2.32516
G1 X83.943 Y100.681 E2.35429
G1 X83.942 Y99.623 E2.38369
G1 X84.214 Y98.576 E2.41374 F1200.000
G1 X84.719 Y97.657 E2.44287
G1 X85.447 Y96.882 E2.47240
G1 X86.362 Y96.306 E2.50244
G1 X87.356 Y95.990 E2.53143
G1 X88.416 Y95.918 E2.56094
G1 X89.460 Y96.117 E2.59047
G1 X90.410 Y96.563 E2.61960
G1 X91.241 Y97.247 E2.64951
G1 X91.872 Y98.120 E2.67943
G1 X92.258 Y99.095 E2.70856
G1 X92.382 Y100.076 E2.73601
G1 E0.73601 F2400.00000
G92 E0
G1 X76.150 Y111.850 F7800.000
G1 X76.150 Y111.850 F7800.000
G1 X77.115 Y110.885 F7800.000
G1 E2.00000 F2400.00000
G1 X77.050 Y110.573 E2.01861 F1200.000
G1 X77.050 Y89.427 E3.25111
G1 X77.115 Y89.115 E3.26973
G1 X77.427 Y89.050 E3.28834
G1 X122.573 Y89.050 E5.91975
G1 X122.885 Y89.115 E5.93836
G1 X122.950 Y89.427 E5.95698
G1 X122.950 Y110.573 E7.18948
G1 X122.885 Y110.885 E7.20809
G1 X122.573 Y110.950 E7.22671
G1 X77.427 Y110.950 E9.85812
G1 X77.188 Y110.900 E9.87236
G1 Z1.100 F7800.000
G1 X77.700 Y110.300 F7800.000
G1 X77.700 Y89.700 E10.25322 F1800.000
G1 X122.300 Y89.700 E11.07779
G1 X122.300 Y110.300 E11.45865
G1 X77.775 Y110.300 E12.28184
G1 X77.200 Y110.300 F7800.000
G1 X76.400 Y111.600 F7800.000
G1 X76.400 Y88.400 E12.71077 F1800.000
G1 X123.600 Y88.400 E13.58342
G1 X123.600 Y111.600 E14.01234
G1 X76.475 Y111.600 E14.88360
G1 X76.650 Y111.167 F7800.000
G1 E12.88360 F2400.00000
G92 E0
G1 X76.150 Y111.850 F7800.000
G1 X76.150 Y111.850 F7800.000
G1 X85.572 Y102.987 F7800.000
G1 E2.00000 F2400.00000
G1 X85.034 Y102.414 E2.01453 F900.000
G1 X84.569 Y101.568 E2.03238
G1 X84.328 Y100.633 E2.05024
G1 X84.328 Y99.667 E2.06809
G1 X84.569 Y98.732 E2.08594
G1 X85.034 Y97.886 E2.10379
G1 X85.695 Y97.182 E2.12164
G1 X86.510 Y96.665 E2.13949
G1 X87.428 Y96.366 E2.15735
G1 X87.528 Y96.360 E2.15919
G1 X88.392 Y96.306 E2.17520 F900.000
G1 X89.340 Y96.487 E2.19305
G1 X90.214 Y96.898 E2.21090
G1 X90.958 Y97.513 E2.22875
G1 X91.526 Y98.294 E2.24660
G1 X91.881 Y99.192 E2.26446
G1 X92.002 Y100.150 E2.28231
G1 X91.881 Y101.108 E2.30016
G1 X91.526 Y102.006 E2.31801
G1 X90.958 Y102.787 E2.33586
G1 X90.214 Y103.402 E2.35371
G1 X89.340 Y103.813 E2.37156
G1 X88.392 Y103.994 E2.38942
G1 X87.428 Y103.934 E2.40727
G1 X86.510 Y103.635 E2.42512
G1 X85.695 Y103.118 E2.44297
G1 X85.623 Y103.042 E2.44490
G1 X85.085 Y103.101 F7800.000
G1 X85.009 Y103.516 F7800.000
G1 X84.404 Y102.872 E2.46124 F900.000
G1 X83.845 Y101.855 E2.48270
G1 X83.556 Y100.730 E2.50416
G1 X83.556 Y99.570 E2.52562
G1 X83.845 Y98.445 E2.54708
G1 X84.404 Y97.428 E2.56854
G1 X85.198 Y96.582 E2.59000
G1 X86.178 Y95.960 E2.61146
G1 X87.282 Y95.602 E2.63292
G1 X88.441 Y95.529 E2.65438
G1 X88.500 Y95.540 E2.65550
G1 X89.581 Y95.746 E2.67584 F900.000
G1 X90.631 Y96.240 E2.69730
G1 X91.526 Y96.980 E2.71876
G1 X92.208 Y97.919 E2.74021
G1 X92.635 Y98.998 E2.76167
G1 X92.781 Y100.150 E2.78313
